static/svg/index/film-solid.svg

<svg xmlns="http://www.w3.org/2000/svg" height="16" width="16" viewBox="0 0 512 512"><path fill="#1D4AB8" d="M0 96c0-35.3 28.7-64 64-64h384c35.3 0 64 28.7 64 64v320c0 35.3-28.7 64-64 64H64c-35.3 0-64-28.7-64-64zm48 272v32c0 8.8 7.2 16 16 16h32c8.8 0 16-7.2 16-16v-32c0-8.8-7.2-16-16-16H64c-8.8 0-16 7.2-16 16m368-16c-8.8 0-16 7.2-16 16v32c0 8.8 7.2 16 16 16h32c8.8 0 16-7.2 16-16v-32c0-8.8-7.2-16-16-16zM48 240v32c0 8.8 7.2 16 16 16h32c8.8 0 16-7.2 16-16v-32c0-8.8-7.2-16-16-16H64c-8.8 0-16 7.2-16 16m368-16c-8.8 0-16 7.2-16 16v32c0 8.8 7.2 16 16 16h32c8.8 0 16-7.2 16-16v-32c0-8.8-7.2-16-16-16zM48 112v32c0 8.8 7.2 16 16 16h32c8.8 0 16-7.2 16-16v-32c0-8.8-7.2-16-16-16H64c-8.8 0-16 7.2-16 16m368-16c-8.8 0-16 7.2-16 16v32c0 8.8 7.2 16 16 16h32c8.8 0 16-7.2 16-16v-32c0-8.8-7.2-16-16-16zm-256 32v64c0 17.7 14.3 32 32 32h128c17.7 0 32-14.3 32-32v-64c0-17.7-14.3-32-32-32H192c-17.7 0-32 14.3-32 32m32 160c-17.7 0-32 14.3-32 32v64c0 17.7 14.3 32 32 32h128c17.7 0 32-14.3 32-32v-64c0-17.7-14.3-32-32-32z"/></svg>

<svg xmlns="http://www.w3.org/2000/svg" height="16" width="16" viewBox="0 0 512 512"><!--!Font Awesome Free 6.5.1 by @fontawesome - https://fontawesome.com License - https://fontawesome.com/license/free Copyright 2024 Fonticons, Inc.--><path opacity="1" fill="#1E3050" d="M0 96C0 60.7 28.7 32 64 32H448c35.3 0 64 28.7 64 64V416c0 35.3-28.7 64-64 64H64c-35.3 0-64-28.7-64-64V96zM48 368v32c0 8.8 7.2 16 16 16H96c8.8 0 16-7.2 16-16V368c0-8.8-7.2-16-16-16H64c-8.8 0-16 7.2-16 16zm368-16c-8.8 0-16 7.2-16 16v32c0 8.8 7.2 16 16 16h32c8.8 0 16-7.2 16-16V368c0-8.8-7.2-16-16-16H416zM48 240v32c0 8.8 7.2 16 16 16H96c8.8 0 16-7.2 16-16V240c0-8.8-7.2-16-16-16H64c-8.8 0-16 7.2-16 16zm368-16c-8.8 0-16 7.2-16 16v32c0 8.8 7.2 16 16 16h32c8.8 0 16-7.2 16-16V240c0-8.8-7.2-16-16-16H416zM48 112v32c0 8.8 7.2 16 16 16H96c8.8 0 16-7.2 16-16V112c0-8.8-7.2-16-16-16H64c-8.8 0-16 7.2-16 16zM416 96c-8.8 0-16 7.2-16 16v32c0 8.8 7.2 16 16 16h32c8.8 0 16-7.2 16-16V112c0-8.8-7.2-16-16-16H416zM160 128v64c0 17.7 14.3 32 32 32H320c17.7 0 32-14.3 32-32V128c0-17.7-14.3-32-32-32H192c-17.7 0-32 14.3-32 32zm32 160c-17.7 0-32 14.3-32 32v64c0 17.7 14.3 32 32 32H320c17.7 0 32-14.3 32-32V320c0-17.7-14.3-32-32-32H192z"/></svg>
